images/ig-icon.svg

<svg fill="none" height="17" viewBox="0 0 17 17" width="17" xmlns="http://www.w3.org/2000/svg"><path d="m8.12696 4.76367c-2.29743 0-4.1282 1.86666-4.1282 4.1282 0 2.29743 1.83077 4.12823 4.1282 4.12823 2.26154 0 4.12824-1.8308 4.12824-4.12823 0-2.26154-1.8667-4.1282-4.12824-4.1282zm0 6.82053c-1.47179 0-2.6923-1.1846-2.6923-2.69233 0-1.47179 1.18461-2.65641 2.6923-2.65641 1.4718 0 2.65644 1.18462 2.65644 2.65641 0 1.50773-1.18464 2.69233-2.65644 2.69233zm5.24104-6.96412c0-.53846-.4308-.96923-.9692-.96923-.5385 0-.9693.43077-.9693.96923s.4308.96923.9693.96923c.5384 0 .9692-.43077.9692-.96923zm2.7282.96923c-.0718-1.29231-.359-2.44103-1.2923-3.37436s-2.0821-1.220513-3.3744-1.292308c-1.3282-.071795-5.31279-.071795-6.641 0-1.29231.071795-2.40513.358978-3.37436 1.292308-.93333.93333-1.220509 2.08205-1.292304 3.37436-.071795 1.3282-.071795 5.31279 0 6.64099.071795 1.2923.358974 2.4052 1.292304 3.3744.96923.9333 2.08205 1.2205 3.37436 1.2923 1.32821.0718 5.3128.0718 6.641 0 1.2923-.0718 2.4411-.359 3.3744-1.2923.9333-.9692 1.2205-2.0821 1.2923-3.3744.0718-1.3282.0718-5.31279 0-6.64099zm-1.7231 8.04099c-.2513.718-.8256 1.2564-1.5077 1.5436-1.0769.4308-3.58972.3231-4.73844.3231-1.18461 0-3.69743.1077-4.73846-.3231-.71795-.2872-1.25641-.8256-1.54359-1.5436-.43077-1.041-.32307-3.5538-.32307-4.73843 0-1.14872-.1077-3.66154.32307-4.73846.28718-.68205.82564-1.22051 1.54359-1.50769 1.04103-.43077 3.55385-.32308 4.73846-.32308 1.14872 0 3.66154-.10769 4.73844.32308.6821.25128 1.2205.82564 1.5077 1.50769.4308 1.07692.3231 3.58974.3231 4.73846 0 1.18463.1077 3.69743-.3231 4.73843z" fill="#fff"/></svg>

<svg width="17" height="17" viewBox="0 0 17 17" fill="none" xmlns="http://www.w3.org/2000/svg">
<path d="M8.12696 4.76367C5.82953 4.76367 3.99876 6.63033 3.99876 8.89187C3.99876 11.1893 5.82953 13.0201 8.12696 13.0201C10.3885 13.0201 12.2552 11.1893 12.2552 8.89187C12.2552 6.63033 10.3885 4.76367 8.12696 4.76367ZM8.12696 11.5842C6.65517 11.5842 5.43466 10.3996 5.43466 8.89187C5.43466 7.42008 6.61927 6.23546 8.12696 6.23546C9.59876 6.23546 10.7834 7.42008 10.7834 8.89187C10.7834 10.3996 9.59876 11.5842 8.12696 11.5842ZM13.368 4.62008C13.368 4.08162 12.9372 3.65085 12.3988 3.65085C11.8603 3.65085 11.4295 4.08162 11.4295 4.62008C11.4295 5.15854 11.8603 5.58931 12.3988 5.58931C12.9372 5.58931 13.368 5.15854 13.368 4.62008ZM16.0962 5.58931C16.0244 4.297 15.7372 3.14828 14.8039 2.21495C13.8706 1.28162 12.7218 0.994437 11.4295 0.922642C10.1013 0.850847 6.11671 0.850847 4.7885 0.922642C3.49619 0.994437 2.38337 1.28162 1.41414 2.21495C0.48081 3.14828 0.193631 4.297 0.121836 5.58931C0.050041 6.91751 0.050041 10.9021 0.121836 12.2303C0.193631 13.5226 0.48081 14.6355 1.41414 15.6047C2.38337 16.538 3.49619 16.8252 4.7885 16.897C6.11671 16.9688 10.1013 16.9688 11.4295 16.897C12.7218 16.8252 13.8706 16.538 14.8039 15.6047C15.7372 14.6355 16.0244 13.5226 16.0962 12.2303C16.168 10.9021 16.168 6.91751 16.0962 5.58931ZM14.3731 13.6303C14.1218 14.3483 13.5475 14.8867 12.8654 15.1739C11.7885 15.6047 9.27568 15.497 8.12696 15.497C6.94235 15.497 4.42953 15.6047 3.3885 15.1739C2.67055 14.8867 2.13209 14.3483 1.84491 13.6303C1.41414 12.5893 1.52184 10.0765 1.52184 8.89187C1.52184 7.74315 1.41414 5.23033 1.84491 4.15341C2.13209 3.47136 2.67055 2.9329 3.3885 2.64572C4.42953 2.21495 6.94235 2.32264 8.12696 2.32264C9.27568 2.32264 11.7885 2.21495 12.8654 2.64572C13.5475 2.897 14.0859 3.47136 14.3731 4.15341C14.8039 5.23033 14.6962 7.74315 14.6962 8.89187C14.6962 10.0765 14.8039 12.5893 14.3731 13.6303Z" fill="white"/>
</svg>
